**kern	**kern	**dynam
*part1	*part1	*part1
*staff2	*staff1	*
*I"Piano	*	*
*clefF4	*clefG2	*
*k[f#c#]	*k[f#c#]	*
=1	=1	=1
!	!LO:TX:a:i:t=colla voce	!LO:DY:a
4E'~	4A'~ 4B 4d 4fn	p
4r	4r	.
=	=	=
*^	*	*
!	!	!	!LO:DY:a
4D	4EE'~	4G#X'~	pp
*v	*v	*	*
4rGG	4r	.
=	=	=
*^	*	*
4C#	4AAA'~ 4AA	8A'L	.
.	.	(8A'	pp
*v	*v	*	*
4rGG	8A'	.
.	8A'J	.
=	=	=
2r	8A'L	pp
!	!	!LO:DY:a
.	8A'	??? pp
.	8A'	.
.	8A'J)	.
=	=	=
!	!	!LO:DY:a
(2Gn	(12B-XL	pp
.	12fn	.
.	12dJ	.
.	12b-XL	.
.	12f	.
.	12dJ)	.
=	=	=
2Cn	(12B-XL	.
.	12e	.
.	12cnJ	.
.	12b-XL	.
.	12e	.
.	12cJ)	.
=	=	=
2Fn	(12B-XL	.
.	12e	.
.	12cnJ	.
.	12b-XL	.
.	12e	.
.	12cJ)	.
=	=	=
*-	*-	*-
!!!system-decoration: {(s1,s2)}
